X:1
T: Home to Bon Accord
C:
R:Jig
Q:128
K:A
M:6/8
L:1/16
E2|A4A2 B3AG2|A6 A4c2|e4e2 f3e^d2|e6 e4^e2|f4a2 d4f2|e4a2 c4e2|d4c2 B4A2|G3FE2 D3CB,2|
A,4A,2 B,3A,G,2|A,6 A,4C2|E4E2 F3E^D2|E6 E4^E2|F4A2 d3fa2|E4A2 c3ea2|g3fe2 d3cB2|A6 e6|
a6 a3ba2|g3ag2 f3gf2|e4c2 c4=c2|c4E2 A4c2|e4d2 d4c2|d4E2 G4B2|f4e2 ^d4f2|e4e2 f4g2|
a6 a3ba2|g3ag2 f3gf2|e4c2 c4=c2|c4E2 A4c2|e4d2 d4c2|d4E2 G4B2|A6 c6|A6 A4||
